actions/48/open-menu.svg

<?xml version="1.0" encoding="UTF-8" standalone="no"?>
<svg
   xmlns:dc="http://purl.org/dc/elements/1.1/"
   xmlns:cc="http://creativecommons.org/ns#"
   xmlns:rdf="http://www.w3.org/1999/02/22-rdf-syntax-ns#"
   xmlns:svg="http://www.w3.org/2000/svg"
   xmlns="http://www.w3.org/2000/svg"
   xmlns:xlink="http://www.w3.org/1999/xlink"
   id="svg2527"
   height="48"
   width="48"
   version="1.0">
  <metadata
     id="metadata27">
    <rdf:RDF>
      <cc:Work
         rdf:about="">
        <dc:format>image/svg+xml</dc:format>
        <dc:type
           rdf:resource="http://purl.org/dc/dcmitype/StillImage" />
      </cc:Work>
    </rdf:RDF>
  </metadata>
  <defs
     id="defs2529">
    <linearGradient
       id="linearGradient8838">
      <stop
         offset="0"
         style="stop-color:#000000;stop-opacity:1"
         id="stop8840" />
      <stop
         offset="1"
         style="stop-color:#000000;stop-opacity:0"
         id="stop8842" />
    </linearGradient>
    <radialGradient
       gradientTransform="matrix(2.1647059,0,0,0.7529402,-111.56471,36.517647)"
       gradientUnits="userSpaceOnUse"
       xlink:href="#linearGradient8838"
       id="radialGradient2436"
       fy="4.625"
       fx="62.625"
       r="10.625"
       cy="4.625"
       cx="62.625" />
    <linearGradient
       id="linearGradient3397">
      <stop
         offset="0"
         style="stop-color:#aaaaaa;stop-opacity:1"
         id="stop3399" />
      <stop
         offset="1"
         style="stop-color:#8c8c8c;stop-opacity:1"
         id="stop3401" />
    </linearGradient>
    <linearGradient
       gradientUnits="userSpaceOnUse"
       xlink:href="#linearGradient3397"
       id="linearGradient2517"
       y2="45"
       x2="37.201294"
       y1="1"
       x1="37.201294" />
    <linearGradient
       gradientUnits="userSpaceOnUse"
       id="linearGradient3309"
       y2="122.8994"
       x2="63.9995"
       y1="3.1001"
       x1="63.9995">
      <stop
         offset="0"
         style="stop-color:#f6f6f6;stop-opacity:1"
         id="stop3311" />
      <stop
         offset="1"
         style="stop-color:#d2d2d2;stop-opacity:1"
         id="stop3313" />
    </linearGradient>
    <linearGradient
       gradientUnits="userSpaceOnUse"
       xlink:href="#linearGradient3309"
       id="linearGradient2515"
       y2="45.017357"
       x2="20.758585"
       y1="1"
       x1="20.758585" />
    <linearGradient
       id="linearGradient5128">
      <stop
         offset="0"
         style="stop-color:#e5e5e5;stop-opacity:1"
         id="stop5130" />
      <stop
         offset="1"
         style="stop-color:#ababab;stop-opacity:1"
         id="stop5132" />
    </linearGradient>
    <linearGradient
       gradientTransform="matrix(0.3244803,0,0,0.3244803,3.2332655,2.5577454)"
       gradientUnits="userSpaceOnUse"
       xlink:href="#linearGradient5128"
       id="linearGradient2512"
       y2="20.895"
       x2="84.63858"
       y1="105.105"
       x1="86.132919" />
  </defs>
  <g
     id="layer1">
    <path
       style="opacity:0.3;fill:url(#radialGradient2436);fill-opacity:1;fill-rule:evenodd;stroke:none;stroke-width:0.99999988;marker:none;visibility:visible;display:inline;overflow:visible"
       id="path8836"
       d="m 46.999997,40 c 0,4.418278 -10.297452,8 -23,8 -12.702548,0 -23.0000002,-3.581722 -23.0000002,-8 0,-4.418278 10.2974522,-8 23.0000002,-8 12.702548,0 23,3.581722 23,8 l 0,0 z" />
    <path
       style="fill:url(#linearGradient2515);fill-opacity:1;fill-rule:nonzero;stroke:url(#linearGradient2517);stroke-width:1;stroke-linecap:butt;stroke-linejoin:round;stroke-miterlimit:4;stroke-opacity:1;stroke-dasharray:none;stroke-dashoffset:0;marker:none;visibility:visible;display:block;overflow:visible;enable-background:accumulate"
       id="rect3267"
       d="M 21.03125,1.5 C 20.18512,1.5 19.5,2.2019069 19.5,3.0625 l 0,3.03125 C 17.987058,6.4968555 16.541437,7.105736 15.21875,7.875 L 13.0625,5.71875 C 12.758234,5.4144843 12.393747,5.2533367 12,5.25 11.606253,5.2466633 11.205402,5.3883479 10.90625,5.6875 L 6.6875,9.90625 C 6.0891956,10.504554 6.1102186,11.453968 6.71875,12.0625 L 8.875,14.21875 C 8.105736,15.541437 7.4968555,16.987058 7.09375,18.5 l -3.03125,0 C 3.2019067,18.5 2.5,19.185119 2.5,20.03125 l 0,5.9375 C 2.5,26.81488 3.201907,27.5 4.0625,27.5 l 3.03125,0 c 0.4031055,1.512942 1.011986,2.958563 1.78125,4.28125 L 6.71875,33.9375 C 6.1102187,34.546031 6.0891959,35.495445 6.6875,36.09375 l 4.21875,4.21875 c 0.598304,0.598304 1.547718,0.577279 2.15625,-0.03125 L 15.21875,38.125 c 1.322687,0.769264 2.768308,1.378144 4.28125,1.78125 l 0,3.03125 c 0,0.860593 0.685119,1.5625 1.53125,1.5625 l 5.9375,0 C 27.81488,44.5 28.5,43.798093 28.5,42.9375 l 0,-3.03125 c 1.512942,-0.403106 2.958563,-1.011986 4.28125,-1.78125 l 2.15625,2.15625 c 0.608531,0.608531 1.557946,0.629555 2.15625,0.03125 l 4.21875,-4.21875 c 0.598304,-0.598304 0.577281,-1.547719 -0.03125,-2.15625 L 39.125,31.78125 C 39.894264,30.458563 40.503144,29.012942 40.90625,27.5 l 3.03125,0 c 0.860593,0 1.5625,-0.685119 1.5625,-1.53125 l 0,-5.9375 C 45.5,19.18512 44.798093,18.5 43.9375,18.5 l -3.03125,0 C 40.503144,16.987058 39.894264,15.541437 39.125,14.21875 l 2.15625,-2.15625 c 0.608531,-0.608531 0.629555,-1.557946 0.03125,-2.15625 L 37.09375,5.6875 C 36.495446,5.0891956 35.54603,5.1102187 34.9375,5.71875 L 32.78125,7.875 C 31.458563,7.105736 30.012942,6.4968555 28.5,6.09375 l 0,-3.03125 C 28.5,2.2019067 27.814881,1.5 26.96875,1.5 l -5.9375,0 z M 24,16.5 c 3.588,0 6.5,2.912 6.5,6.5 0,3.588 -2.912,6.5 -6.5,6.5 -3.588,0 -6.5,-2.912 -6.5,-6.5 0,-3.588 2.912,-6.5 6.5,-6.5 z" />
    <path
       style="fill:none;stroke:url(#linearGradient2512);stroke-width:1;stroke-miterlimit:4;stroke-dasharray:none"
       id="path28"
       d="m 24,9.5 c -7.443901,0 -13.5,6.056099 -13.5,13.5 0,7.4439 6.056099,13.5 13.5,13.5 7.443901,0 13.5,-6.0561 13.5,-13.5 C 37.5,15.556099 31.443901,9.5 24,9.5 z" />
    <path
       style="opacity:0.05;fill:#000000;fill-opacity:1;stroke:none"
       id="path3315"
       d="m 24,10 c -7.168321,-5e-7 -13,5.83168 -13,13 0,7.16832 5.831679,13 13,13 7.168319,-10e-7 13,-5.83168 13,-13 0,-7.16832 -5.831681,-13 -13,-13 z m 0,6 c 3.864,0 7,3.136 7,7 0,3.864 -3.136,7 -7,7 -3.864,0 -7,-3.136 -7,-7 0,-3.864 3.136,-7 7,-7 z" />
  </g>
</svg>

<?xml version="1.0" encoding="UTF-8" standalone="no"?>
<svg
   version="1.0"
   width="48"
   height="48"
   id="svg2527"
   sodipodi:docname="open-menu.svg"
   inkscape:version="1.2.2 (b0a8486541, 2022-12-01)"
   xmlns:inkscape="http://www.inkscape.org/namespaces/inkscape"
   xmlns:sodipodi="http://sodipodi.sourceforge.net/DTD/sodipodi-0.dtd"
   xmlns:xlink="http://www.w3.org/1999/xlink"
   xmlns="http://www.w3.org/2000/svg"
   xmlns:svg="http://www.w3.org/2000/svg"
   xmlns:rdf="http://www.w3.org/1999/02/22-rdf-syntax-ns#"
   xmlns:cc="http://creativecommons.org/ns#"
   xmlns:dc="http://purl.org/dc/elements/1.1/">
  <sodipodi:namedview
     id="namedview24294"
     pagecolor="#ffffff"
     bordercolor="#666666"
     borderopacity="1.0"
     inkscape:showpageshadow="2"
     inkscape:pageopacity="0.0"
     inkscape:pagecheckerboard="0"
     inkscape:deskcolor="#d1d1d1"
     showgrid="false"
     inkscape:zoom="6.9532165"
     inkscape:cx="-26.318755"
     inkscape:cy="22.363751"
     inkscape:window-width="1326"
     inkscape:window-height="724"
     inkscape:window-x="428"
     inkscape:window-y="304"
     inkscape:window-maximized="0"
     inkscape:current-layer="layer1" />
  <metadata
     id="metadata737">
    <rdf:RDF>
      <cc:Work
         rdf:about="">
        <dc:format>image/svg+xml</dc:format>
        <dc:type
           rdf:resource="http://purl.org/dc/dcmitype/StillImage" />
      </cc:Work>
    </rdf:RDF>
  </metadata>
  <defs
     id="defs2529">
    <linearGradient
       id="linearGradient8838">
      <stop
         id="stop8840"
         style="stop-color:#000000;stop-opacity:1"
         offset="0" />
      <stop
         id="stop8842"
         style="stop-color:#000000;stop-opacity:0"
         offset="1" />
    </linearGradient>
    <radialGradient
       cx="62.625"
       cy="4.625"
       r="10.625"
       fx="62.625"
       fy="4.625"
       id="radialGradient2436"
       xlink:href="#linearGradient8838"
       gradientUnits="userSpaceOnUse"
       gradientTransform="matrix(1.9764705,0,0,0.65882267,-99.776471,35.952941)" />
    <linearGradient
       id="linearGradient3397">
      <stop
         id="stop3399"
         style="stop-color:#000000;stop-opacity:0.31999999;"
         offset="0" />
      <stop
         id="stop3401"
         style="stop-color:#000000;stop-opacity:0.34;"
         offset="1" />
    </linearGradient>
    <linearGradient
       x1="37.201294"
       y1="1"
       x2="37.201294"
       y2="45"
       id="linearGradient2517"
       xlink:href="#linearGradient3397"
       gradientUnits="userSpaceOnUse" />
    <linearGradient
       x1="63.9995"
       y1="3.1001"
       x2="63.9995"
       y2="122.8994"
       id="linearGradient3309"
       gradientUnits="userSpaceOnUse">
      <stop
         id="stop3311"
         style="stop-color:#f6f6f6;stop-opacity:1"
         offset="0" />
      <stop
         id="stop3313"
         style="stop-color:#d2d2d2;stop-opacity:1"
         offset="1" />
    </linearGradient>
    <linearGradient
       x1="20.758585"
       y1="1"
       x2="20.758585"
       y2="45.017357"
       id="linearGradient2515"
       xlink:href="#linearGradient3309"
       gradientUnits="userSpaceOnUse" />
    <linearGradient
       id="linearGradient5128">
      <stop
         id="stop5130"
         style="stop-color:#e5e5e5;stop-opacity:1"
         offset="0" />
      <stop
         id="stop5132"
         style="stop-color:#ababab;stop-opacity:1"
         offset="1" />
    </linearGradient>
    <linearGradient
       x1="86.132919"
       y1="105.105"
       x2="84.63858"
       y2="20.895"
       id="linearGradient2512"
       xlink:href="#linearGradient5128"
       gradientUnits="userSpaceOnUse"
       gradientTransform="matrix(0.3244803,0,0,0.3244803,3.2332655,2.5577454)" />
  </defs>
  <g
     id="layer1">
    <path
       d="m 45,39 c 0,3.865993 -9.402021,7 -21,7 -11.597979,0 -21.0000001,-3.134007 -21.0000001,-7 0,-3.865993 9.4020211,-7 21.0000001,-7 11.597979,0 21,3.134007 21,7 z"
       id="path8836"
       style="display:inline;overflow:visible;visibility:visible;opacity:0.3;fill:url(#radialGradient2436);fill-opacity:1;fill-rule:evenodd;stroke:none;stroke-width:0.999995;stroke-linecap:butt;stroke-linejoin:round;stroke-miterlimit:4;stroke-dasharray:none;stroke-dashoffset:0;stroke-opacity:1;marker:none;marker-start:none;marker-mid:none;marker-end:none" />
    <path
       d="M 21.03125,1.5 C 20.18512,1.5 19.5,2.2019069 19.5,3.0625 L 19.5,6.09375 C 17.987058,6.4968555 16.541437,7.105736 15.21875,7.875 L 13.0625,5.71875 C 12.758234,5.4144843 12.393747,5.2533367 12,5.25 C 11.606253,5.2466633 11.205402,5.3883479 10.90625,5.6875 L 6.6875,9.90625 C 6.0891956,10.504554 6.1102186,11.453968 6.71875,12.0625 L 8.875,14.21875 C 8.105736,15.541437 7.4968555,16.987058 7.09375,18.5 L 4.0625,18.5 C 3.2019067,18.5 2.5,19.185119 2.5,20.03125 L 2.5,25.96875 C 2.5,26.81488 3.201907,27.5 4.0625,27.5 L 7.09375,27.5 C 7.4968555,29.012942 8.105736,30.458563 8.875,31.78125 L 6.71875,33.9375 C 6.1102187,34.546031 6.0891959,35.495445 6.6875,36.09375 L 10.90625,40.3125 C 11.504554,40.910804 12.453968,40.889779 13.0625,40.28125 L 15.21875,38.125 C 16.541437,38.894264 17.987058,39.503144 19.5,39.90625 L 19.5,42.9375 C 19.5,43.798093 20.185119,44.5 21.03125,44.5 L 26.96875,44.5 C 27.81488,44.5 28.5,43.798093 28.5,42.9375 L 28.5,39.90625 C 30.012942,39.503144 31.458563,38.894264 32.78125,38.125 L 34.9375,40.28125 C 35.546031,40.889781 36.495446,40.910805 37.09375,40.3125 L 41.3125,36.09375 C 41.910804,35.495446 41.889781,34.546031 41.28125,33.9375 L 39.125,31.78125 C 39.894264,30.458563 40.503144,29.012942 40.90625,27.5 L 43.9375,27.5 C 44.798093,27.5 45.5,26.814881 45.5,25.96875 L 45.5,20.03125 C 45.5,19.18512 44.798093,18.5 43.9375,18.5 L 40.90625,18.5 C 40.503144,16.987058 39.894264,15.541437 39.125,14.21875 L 41.28125,12.0625 C 41.889781,11.453969 41.910805,10.504554 41.3125,9.90625 L 37.09375,5.6875 C 36.495446,5.0891956 35.54603,5.1102187 34.9375,5.71875 L 32.78125,7.875 C 31.458563,7.105736 30.012942,6.4968555 28.5,6.09375 L 28.5,3.0625 C 28.5,2.2019067 27.814881,1.5 26.96875,1.5 L 21.03125,1.5 z M 24,16.5 C 27.588,16.5 30.5,19.412 30.5,23 C 30.5,26.588 27.588,29.5 24,29.5 C 20.412,29.5 17.5,26.588 17.5,23 C 17.5,19.412 20.412,16.5 24,16.5 z"
       id="rect3267"
       style="fill:url(#linearGradient2515);fill-opacity:1;fill-rule:nonzero;stroke:url(#linearGradient2517);stroke-width:1;stroke-linecap:butt;stroke-linejoin:round;marker:none;marker-start:none;marker-mid:none;marker-end:none;stroke-miterlimit:4;stroke-dasharray:none;stroke-dashoffset:0;stroke-opacity:1;visibility:visible;display:block;overflow:visible;enable-background:accumulate" />
    <path
       d="M 24,9.5 C 16.556099,9.5 10.5,15.556099 10.5,23 C 10.5,30.4439 16.556099,36.5 24,36.5 C 31.443901,36.5 37.5,30.4439 37.5,23 C 37.5,15.556099 31.443901,9.5 24,9.5 z"
       id="path28"
       style="fill:none;stroke:url(#linearGradient2512);stroke-width:1;stroke-miterlimit:4;stroke-dasharray:none" />
    <path
       d="M 24,10 C 16.831679,9.9999995 11,15.83168 11,23 C 11,30.16832 16.831679,36 24,36 C 31.168319,35.999999 37,30.16832 37,23 C 37,15.83168 31.168319,10 24,10 z M 24,16 C 27.864,16 31,19.136 31,23 C 31,26.864 27.864,30 24,30 C 20.136,30 17,26.864 17,23 C 17,19.136 20.136,16 24,16 z"
       id="path3315"
       style="opacity:0.05;fill:#000000;fill-opacity:1;stroke:none;stroke-width:0.99956679;stroke-miterlimit:4;stroke-dasharray:none" />
  </g>
</svg>
